Adwaita++/actions/16/application-rss+xml.svg

<svg height="16" viewBox="0 0 16 16" width="16" xmlns="http://www.w3.org/2000/svg">
  <path d="m1 .99804688v2.18164062c6.5264 0 11.818359 5.2893593 11.818359 11.8183595h2.179688c0-7.7326425-6.2676533-13.9989343-13.998047-14.00000012zm0 4.36132812v2.1835938c4.1174 0 7.4550781 3.3373782 7.4550781 7.4550782h2.1816409c0-5.3218002-4.315119-9.638672-9.636719-9.638672zm2.0898438 5.460937c-1.1546002 0-2.0898438.936567-2.0898438 2.091797 0 1.1529.9352037 2.091797 2.0898438 2.091797 1.1546398 0 2.0917968-.938887 2.0917968-2.091797 0-1.1553-.937157-2.091796-2.0917968-2.091797z" fill="#474747"/>
</svg>

<svg xmlns="http://www.w3.org/2000/svg" width="16" height="16" viewBox="0 0 16 16">
 <defs>
  <style id="current-color-scheme" type="text/css">
   .ColorScheme-Text { color:#474747; } .ColorScheme-Highlight { color:#4285f4; }
  </style>
 </defs>
 <path style="fill:currentColor" class="ColorScheme-Text" d="M 1 0.99804688 L 1 3.1796875 C 7.5264 3.1796875 12.818359 8.4690468 12.818359 14.998047 L 14.998047 14.998047 C 14.998047 7.2654045 8.7303937 0.9991127 1 0.99804688 z M 1 5.359375 L 1 7.5429688 C 5.1174 7.5429688 8.4550781 10.880347 8.4550781 14.998047 L 10.636719 14.998047 C 10.636719 9.6762468 6.3216 5.359375 1 5.359375 z M 3.0898438 10.820312 C 1.9352436 10.820312 1 11.756879 1 12.912109 C 1 14.065009 1.9352037 15.003906 3.0898438 15.003906 C 4.2444836 15.003906 5.1816406 14.065019 5.1816406 12.912109 C 5.1816406 11.756809 4.2444836 10.820313 3.0898438 10.820312 z"/>
</svg>
